X: 414
T: A Trip To Inishturk
R: reel
M: 4/4
K: Fdorian
|:c2cB Gccc|cBGF GBBG|FEDF Bcdf|fdgd fded|
cccB Gccc|cBGF GBBG|FEDF Bcdf|1 fdce dBed:|2 fdce dBdf||
|:b2bc' bgfe|cdfe dcBG|FEDF Bcdf|fdce dBdf|
b2bc' bgfe|cdfe dcBG|FEDF Bcdf|1 fdce dBdf:|2 fdce dBed||

